X:99
M:9/8
L:1/8
K:Dmin
d|cAA AGA FGA|c2c cdc ccd|cAA AGA FGA|D2d de^c d2:|
|:d/c/|A2f fgf ffA|ccc cdc ccd|cAA AGA FEF|1 D2d de^c d2:|2

